Newaita-dark/apps/24/haguichi.svg

<svg height="24" viewBox="0 0 24 24" width="24" xmlns="http://www.w3.org/2000/svg" xmlns:xlink="http://www.w3.org/1999/xlink"><linearGradient id="a" gradientUnits="userSpaceOnUse" x1="11.90739" x2="11.90739" y1="21.02545225" y2="22.01773525002"><stop offset="0" stop-opacity=".27451"/><stop offset="1" stop-opacity="0"/></linearGradient><linearGradient id="b"><stop offset="0" stop-opacity=".313726"/><stop offset=".222222" stop-opacity=".27451"/><stop offset="1" stop-opacity="0"/></linearGradient><radialGradient id="c" cx="450.908936" cy="189.579361" gradientTransform="matrix(.00000013 -.0585994 -.105479 -.00000008 39.097986 47.696499)" gradientUnits="userSpaceOnUse" r="21.166656" xlink:href="#b"/><radialGradient id="d" cx="450.908936" cy="189.579361" gradientTransform="matrix(-.00000013 .0585994 .105479 .00000008 -15.28321 -5.645609)" gradientUnits="userSpaceOnUse" r="21.166656" xlink:href="#b"/><radialGradient id="e" cx="450.908936" cy="189.579361" gradientTransform="matrix(-.00000013 -.0585994 .105479 -.00000008 -15.28321 47.696499)" gradientUnits="userSpaceOnUse" r="21.166656" xlink:href="#b"/><radialGradient id="f" cx="450.908936" cy="189.579361" gradientTransform="matrix(.00000013 .0585994 -.105479 .00000008 39.097985 -5.64561)" gradientUnits="userSpaceOnUse" r="21.166656" xlink:href="#b"/><linearGradient id="g" gradientUnits="userSpaceOnUse" x1="7.93826174998" x2="7.93826174998" y1="21.02545025" y2="2.17207850005"><stop offset="0" stop-color="#f44336"/><stop offset="1" stop-color="#ef5350"/></linearGradient><linearGradient id="h" gradientUnits="userSpaceOnUse" x1="11.907393" x2="11.907393" y1="21.02545025" y2="2.17207850005"><stop offset="0" stop-color="#bdbdbd"/><stop offset="1" stop-color="#e0e0e0"/></linearGradient><path d="m4.464844 20.953125h14.882812v1.101563h-14.882812zm0 0" fill="url(#a)"/><path d="m19.347656 21.027344h1.988282v-.996094h-1.988282zm0 0" fill="url(#c)"/><path d="m4.464844 21.027344h-1.984375v.992187h1.984375zm0 0" fill="url(#d)"/><path d="m4.464844 21.027344h-1.984375v-.996094h1.984375zm0 0" fill="url(#e)"/><path d="m19.347656 21.027344h1.988282v.992187h-1.988282zm0 0" fill="url(#f)"/><path d="m3.472656 2.171875h16.867188c.550781 0 .996094.445313.996094.992187v16.867188c0 .550781-.445313.996094-.996094.996094h-16.867188c-.546875 0-.992187-.445313-.992187-.996094v-16.867188c0-.546874.445312-.992187.992187-.992187zm0 0" fill="url(#g)"/><path d="m3.472656 2.171875c-.550781 0-.992187.441406-.992187.992187v.125c0-.550781.441406-.992187.992187-.992187h16.867188c.550781 0 .996094.441406.996094.992187v-.125c0-.550781-.445313-.992187-.996094-.992187zm0 0" fill="#e6e6e6" fill-opacity=".392157"/><path d="m3.472656 21.027344c-.550781 0-.992187-.445313-.992187-.996094v-.121094c0 .546875.441406.992188.992187.992188h16.867188c.550781 0 .996094-.445313.996094-.992188v.121094c0 .550781-.445313.996094-.996094.996094zm0 0" fill-opacity=".196078"/><path d="m74.076259-168.671091h359.798975c11.748878 0 21.247971 9.499093 21.247971 21.164646v359.798974c0 11.748878-9.499093 21.247971-21.247971 21.247971h-359.798975c-11.665552 0-21.164645-9.499093-21.164645-21.247971v-359.798974c0-11.665553 9.499093-21.164646 21.164645-21.164646zm0 0" fill="none" stroke="#212121" stroke-linecap="round" stroke-width="3" transform="matrix(.0468795 0 0 .0468795 0 10.079087)"/><path d="m11.90625 5.148438c-.144531 0-.285156.066406-.378906.179687l-4.960938 5.953125c-.152344.183594-.152344.449219 0 .632812l4.960938 5.957032c.09375.113281.234375.175781.378906.175781h2.976562c.421876 0 .652344-.488281.382813-.8125l-4.179687-5.011719-2.28125 1.484375 1.769531-2.101562-.007813-.007813 4.699219-5.636718c.269531-.320313.039063-.8125-.382813-.8125zm0 0" fill="url(#h)"/><path d="m11.90625 5.148438c-.144531 0-.285156.066406-.378906.179687l-4.960938 5.953125c-.097656.117188-.132812.269531-.105468.410156.015624-.082031.050781-.15625.105468-.222656l4.960938-5.957031c.09375-.113281.234375-.175781.378906-.175781h2.976562c.261719 0 .445313.1875.488282.40625.054687-.289063-.15625-.59375-.488282-.59375zm-.820312 7.074218-1.933594 1.257813-.347656.414062 2.28125-1.488281 4.179687 5.015625c.054687.066406.089844.144531.105469.21875.027344-.132813-.003906-.28125-.105469-.40625zm0 0" fill="#fff"/><path d="m15.363281 5.835938c-.019531.0625-.050781.125-.097656.183593l-4.699219 5.636719.007813.007812-1.769531 2.101563.488281-.316406 1.28125-1.523438-.007813-.007812 4.699219-5.636719c.113281-.136719.136719-.300781.097656-.445312zm-8.894531 5.949218c-.042969.152344-.007812.320313.097656.449219l4.960938 5.953125c.09375.113281.234375.179688.378906.179688h2.976562c.347657 0 .5625-.332032.480469-.628907-.054687.203125-.234375.367188-.480469.367188h-2.976562c-.144531 0-.285156-.066407-.378906-.179688l-4.960938-5.953125c-.046875-.054687-.082031-.117187-.097656-.1875zm0 0" fill-opacity=".235294"/><path d="m959.908384 415.078494c-11.652431 0-22.989932 5.35382-30.548266 14.486806l-399.961826 479.954192c-12.282293 14.801737-12.282293 36.217016 0 51.018753l399.961826 480.269122c7.558334 9.132987 18.895835 14.171876 30.548266 14.171876h239.977096c34.012502 0 52.593405-39.366321 30.863196-65.505559l-336.975712-404.055924-183.919454 119.673618 142.663549-169.432648-.629861-.629861 378.861478-454.444816c21.730209-25.824307 3.149306-65.505559-30.863196-65.505559zm0 0" fill="none" stroke="#212121" stroke-linecap="round" stroke-linejoin="round" stroke-width="11.338583" transform="scale(.0124035)"/></svg>

<?xml version="1.0" encoding="UTF-8"?>
<svg xmlns="http://www.w3.org/2000/svg" xmlns:xlink="http://www.w3.org/1999/xlink" width="24px" height="24px" viewBox="0 0 24 24" version="1.1">
<defs>
<linearGradient id="linear0" gradientUnits="userSpaceOnUse" x1="254" y1="233.5" x2="254" y2="254.666672" gradientTransform="matrix(0.0468795,0,0,0.0468795,-0.0000028613,10.079089)">
<stop offset="0" style="stop-color:rgb(0%,0%,0%);stop-opacity:0.27451;"/>
<stop offset="1" style="stop-color:rgb(0%,0%,0%);stop-opacity:0;"/>
</linearGradient>
<radialGradient id="radial0" gradientUnits="userSpaceOnUse" cx="450.908936" cy="189.579361" fx="450.908936" fy="189.579361" r="21.166656" gradientTransform="matrix(0.000000130628,-0.0585994,-0.105479,-0.0000000761539,39.097986,47.696499)">
<stop offset="0" style="stop-color:rgb(0%,0%,0%);stop-opacity:0.313726;"/>
<stop offset="0.222222" style="stop-color:rgb(0%,0%,0%);stop-opacity:0.27451;"/>
<stop offset="1" style="stop-color:rgb(0%,0%,0%);stop-opacity:0;"/>
</radialGradient>
<radialGradient id="radial1" gradientUnits="userSpaceOnUse" cx="450.908936" cy="189.579361" fx="450.908936" fy="189.579361" r="21.166656" gradientTransform="matrix(-0.000000130628,0.0585994,0.105479,0.0000000761539,-15.28321,-5.645609)">
<stop offset="0" style="stop-color:rgb(0%,0%,0%);stop-opacity:0.313726;"/>
<stop offset="0.222222" style="stop-color:rgb(0%,0%,0%);stop-opacity:0.27451;"/>
<stop offset="1" style="stop-color:rgb(0%,0%,0%);stop-opacity:0;"/>
</radialGradient>
<radialGradient id="radial2" gradientUnits="userSpaceOnUse" cx="450.908936" cy="189.579361" fx="450.908936" fy="189.579361" r="21.166656" gradientTransform="matrix(-0.000000130628,-0.0585994,0.105479,-0.0000000761539,-15.28321,47.696499)">
<stop offset="0" style="stop-color:rgb(0%,0%,0%);stop-opacity:0.313726;"/>
<stop offset="0.222222" style="stop-color:rgb(0%,0%,0%);stop-opacity:0.27451;"/>
<stop offset="1" style="stop-color:rgb(0%,0%,0%);stop-opacity:0;"/>
</radialGradient>
<radialGradient id="radial3" gradientUnits="userSpaceOnUse" cx="450.908936" cy="189.579361" fx="450.908936" fy="189.579361" r="21.166656" gradientTransform="matrix(0.000000130628,0.0585994,-0.105479,0.0000000761539,39.097985,-5.64561)">
<stop offset="0" style="stop-color:rgb(0%,0%,0%);stop-opacity:0.313726;"/>
<stop offset="0.222222" style="stop-color:rgb(0%,0%,0%);stop-opacity:0.27451;"/>
<stop offset="1" style="stop-color:rgb(0%,0%,0%);stop-opacity:0;"/>
</radialGradient>
<linearGradient id="linear1" gradientUnits="userSpaceOnUse" x1="169.333328" y1="233.5" x2="169.333328" y2="-168.666656" gradientTransform="matrix(0.0468795,0,0,0.0468795,0,10.079087)">
<stop offset="0" style="stop-color:rgb(95.686275%,26.274511%,21.176471%);stop-opacity:1;"/>
<stop offset="1" style="stop-color:rgb(93.725491%,32.549021%,31.37255%);stop-opacity:1;"/>
</linearGradient>
<linearGradient id="linear2" gradientUnits="userSpaceOnUse" x1="254" y1="233.5" x2="254" y2="-168.666656" gradientTransform="matrix(0.0468795,0,0,0.0468795,0,10.079087)">
<stop offset="0" style="stop-color:rgb(74.117649%,74.117649%,74.117649%);stop-opacity:1;"/>
<stop offset="1" style="stop-color:rgb(87.843138%,87.843138%,87.843138%);stop-opacity:1;"/>
</linearGradient>
</defs>
<g id="surface1">
<path style=" stroke:none;fill-rule:nonzero;fill:url(#linear0);" d="M 4.464844 20.953125 L 19.347656 20.953125 L 19.347656 22.054688 L 4.464844 22.054688 Z M 4.464844 20.953125 "/>
<path style=" stroke:none;fill-rule:nonzero;fill:url(#radial0);" d="M 19.347656 21.027344 L 21.335938 21.027344 L 21.335938 20.03125 L 19.347656 20.03125 Z M 19.347656 21.027344 "/>
<path style=" stroke:none;fill-rule:nonzero;fill:url(#radial1);" d="M 4.464844 21.027344 L 2.480469 21.027344 L 2.480469 22.019531 L 4.464844 22.019531 Z M 4.464844 21.027344 "/>
<path style=" stroke:none;fill-rule:nonzero;fill:url(#radial2);" d="M 4.464844 21.027344 L 2.480469 21.027344 L 2.480469 20.03125 L 4.464844 20.03125 Z M 4.464844 21.027344 "/>
<path style=" stroke:none;fill-rule:nonzero;fill:url(#radial3);" d="M 19.347656 21.027344 L 21.335938 21.027344 L 21.335938 22.019531 L 19.347656 22.019531 Z M 19.347656 21.027344 "/>
<path style=" stroke:none;fill-rule:nonzero;fill:url(#linear1);" d="M 3.472656 2.171875 L 20.339844 2.171875 C 20.890625 2.171875 21.335938 2.617188 21.335938 3.164062 L 21.335938 20.03125 C 21.335938 20.582031 20.890625 21.027344 20.339844 21.027344 L 3.472656 21.027344 C 2.925781 21.027344 2.480469 20.582031 2.480469 20.03125 L 2.480469 3.164062 C 2.480469 2.617188 2.925781 2.171875 3.472656 2.171875 Z M 3.472656 2.171875 "/>
<path style=" stroke:none;fill-rule:nonzero;fill:rgb(90.196079%,90.196079%,90.196079%);fill-opacity:0.392157;" d="M 3.472656 2.171875 C 2.921875 2.171875 2.480469 2.613281 2.480469 3.164062 L 2.480469 3.289062 C 2.480469 2.738281 2.921875 2.296875 3.472656 2.296875 L 20.339844 2.296875 C 20.890625 2.296875 21.335938 2.738281 21.335938 3.289062 L 21.335938 3.164062 C 21.335938 2.613281 20.890625 2.171875 20.339844 2.171875 Z M 3.472656 2.171875 "/>
<path style=" stroke:none;fill-rule:nonzero;fill:rgb(0%,0%,0%);fill-opacity:0.196078;" d="M 3.472656 21.027344 C 2.921875 21.027344 2.480469 20.582031 2.480469 20.03125 L 2.480469 19.910156 C 2.480469 20.457031 2.921875 20.902344 3.472656 20.902344 L 20.339844 20.902344 C 20.890625 20.902344 21.335938 20.457031 21.335938 19.910156 L 21.335938 20.03125 C 21.335938 20.582031 20.890625 21.027344 20.339844 21.027344 Z M 3.472656 21.027344 "/>
<path style="fill:none;stroke-width:3;stroke-linecap:round;stroke-linejoin:miter;stroke:rgb(12.941177%,12.941177%,12.941177%);stroke-opacity:1;stroke-miterlimit:4;" d="M 74.076259 -168.671091 L 433.875234 -168.671091 C 445.624112 -168.671091 455.123205 -159.171998 455.123205 -147.506445 L 455.123205 212.292529 C 455.123205 224.041407 445.624112 233.5405 433.875234 233.5405 L 74.076259 233.5405 C 62.410707 233.5405 52.911614 224.041407 52.911614 212.292529 L 52.911614 -147.506445 C 52.911614 -159.171998 62.410707 -168.671091 74.076259 -168.671091 Z M 74.076259 -168.671091 " transform="matrix(0.0468795,0,0,0.0468795,0,10.079087)"/>
<path style=" stroke:none;fill-rule:nonzero;fill:url(#linear2);" d="M 11.90625 5.148438 C 11.761719 5.148438 11.621094 5.214844 11.527344 5.328125 L 6.566406 11.28125 C 6.414062 11.464844 6.414062 11.730469 6.566406 11.914062 L 11.527344 17.871094 C 11.621094 17.984375 11.761719 18.046875 11.90625 18.046875 L 14.882812 18.046875 C 15.304688 18.046875 15.535156 17.558594 15.265625 17.234375 L 11.085938 12.222656 L 8.804688 13.707031 L 10.574219 11.605469 L 10.566406 11.597656 L 15.265625 5.960938 C 15.535156 5.640625 15.304688 5.148438 14.882812 5.148438 Z M 11.90625 5.148438 "/>
<path style=" stroke:none;fill-rule:nonzero;fill:rgb(100%,100%,100%);fill-opacity:1;" d="M 11.90625 5.148438 C 11.761719 5.148438 11.621094 5.214844 11.527344 5.328125 L 6.566406 11.28125 C 6.46875 11.398438 6.433594 11.550781 6.460938 11.691406 C 6.476562 11.609375 6.511719 11.535156 6.566406 11.46875 L 11.527344 5.511719 C 11.621094 5.398438 11.761719 5.335938 11.90625 5.335938 L 14.882812 5.335938 C 15.144531 5.335938 15.328125 5.523438 15.371094 5.742188 C 15.425781 5.453125 15.214844 5.148438 14.882812 5.148438 Z M 11.085938 12.222656 L 9.152344 13.480469 L 8.804688 13.894531 L 11.085938 12.40625 L 15.265625 17.421875 C 15.320312 17.488281 15.355469 17.566406 15.371094 17.640625 C 15.398438 17.507812 15.367188 17.359375 15.265625 17.234375 Z M 11.085938 12.222656 "/>
<path style=" stroke:none;fill-rule:nonzero;fill:rgb(0%,0%,0%);fill-opacity:0.235294;" d="M 15.363281 5.835938 C 15.34375 5.898438 15.3125 5.960938 15.265625 6.019531 L 10.566406 11.65625 L 10.574219 11.664062 L 8.804688 13.765625 L 9.292969 13.449219 L 10.574219 11.925781 L 10.566406 11.917969 L 15.265625 6.28125 C 15.378906 6.144531 15.402344 5.980469 15.363281 5.835938 Z M 6.46875 11.785156 C 6.425781 11.9375 6.460938 12.105469 6.566406 12.234375 L 11.527344 18.1875 C 11.621094 18.300781 11.761719 18.367188 11.90625 18.367188 L 14.882812 18.367188 C 15.230469 18.367188 15.445312 18.035156 15.363281 17.738281 C 15.308594 17.941406 15.128906 18.105469 14.882812 18.105469 L 11.90625 18.105469 C 11.761719 18.105469 11.621094 18.039062 11.527344 17.925781 L 6.566406 11.972656 C 6.519531 11.917969 6.484375 11.855469 6.46875 11.785156 Z M 6.46875 11.785156 "/>
<path style="fill:none;stroke-width:11.338583;stroke-linecap:round;stroke-linejoin:round;stroke:rgb(12.941177%,12.941177%,12.941177%);stroke-opacity:1;stroke-miterlimit:4;" d="M 959.908384 415.078494 C 948.255953 415.078494 936.918452 420.432314 929.360118 429.5653 L 529.398292 909.519492 C 517.115999 924.321229 517.115999 945.736508 529.398292 960.538245 L 929.360118 1440.807367 C 936.918452 1449.940354 948.255953 1454.979243 959.908384 1454.979243 L 1199.88548 1454.979243 C 1233.897982 1454.979243 1252.478885 1415.612922 1230.748676 1389.473684 L 893.772964 985.41776 L 709.85351 1105.091378 L 852.517059 935.65873 L 851.887198 935.028869 L 1230.748676 480.584053 C 1252.478885 454.759746 1233.897982 415.078494 1199.88548 415.078494 Z M 959.908384 415.078494 " transform="matrix(0.0124035,0,0,0.0124035,0,0)"/>
</g>
</svg>
